src/main/content/img/Footer_TwitterBird.svg

<?xml version="1.0" encoding="UTF-8"?>
<svg width="45px" height="45px" viewBox="0 0 45 45" version="1.1" xmlns="http://www.w3.org/2000/svg" xmlns:xlink="http://www.w3.org/1999/xlink">
    <!-- Generator: Sketch 50.2 (55047) - http://www.bohemiancoding.com/sketch -->
    <title>Group 4</title>
    <desc>Created with Sketch.</desc>
    <defs></defs>
    <g id="Symbols" stroke="none" stroke-width="1" fill="none" fill-rule="evenodd">
        <g id="Tabletfooter" transform="translate(-530.000000, -22.000000)">
            <g id="Group-4" transform="translate(531.000000, 23.000000)">
                <path d="M26.8269925,11.4210597 C24.1664277,12.3385597 22.48475,14.7028255 22.6755075,17.290524 L22.7390933,18.28884 L21.6748674,18.1668236 C17.8011521,17.6977736 14.4160436,16.1083911 11.541295,13.4382919 L10.1357136,12.1135424 L9.77595175,13.0912583 C9.00957523,15.2717072 9.4998554,17.5757572 11.0961943,19.1255239 C11.9479096,19.9812234 11.7554789,20.1032398 10.287985,19.594574 C9.77762506,19.4313573 9.32917767,19.3093409 9.28734489,19.3711414 C9.13842019,19.5137579 9.6487801,21.3677734 10.0537214,22.1030411 C10.6075874,23.1235419 11.7353991,24.1202733 12.9703028,24.7129243 L14.0144489,25.1819744 L12.777872,25.1994053 C11.5864744,25.1994053 11.5429683,25.2200055 11.6718133,25.6494398 C12.0968343,26.9741893 13.778512,28.3813395 15.6526205,28.9930062 L16.9728631,29.4208559 L15.8232983,30.0737229 C14.1198675,31.0134076 12.1185874,31.5426736 10.1173072,31.5807047 C9.15849993,31.6013048 8.37037037,31.6821209 8.37037037,31.7439214 C8.37037037,31.9467539 10.9690226,33.0876864 12.4783493,33.537721 C17.0130225,34.8624705 22.3994112,34.2904195 26.4438042,32.0291545 C29.3185528,30.4191719 32.1916281,27.2182221 33.5336236,24.1186886 C34.2581674,22.4690903 34.9810378,19.4519574 34.9810378,18.0051915 C34.9810378,17.0670914 35.0446236,16.945075 36.2360212,15.8247426 C36.9388118,15.1718756 37.5980964,14.4587927 37.7269414,14.2559603 C37.9411252,13.8677263 37.9176989,13.8677263 36.8333932,14.2147599 C35.0245439,14.8264266 34.7685273,14.7456105 35.6637487,13.8281106 C36.3230333,13.1752436 37.1111629,11.9931107 37.1111629,11.6476616 C37.1111629,11.5874457 36.7915605,11.688862 36.4301252,11.8710942 C36.046937,12.0755113 35.1952216,12.3813447 34.5560167,12.5635769 L33.406452,12.9106106 L32.3639791,12.2355588 C31.7883601,11.8695096 30.9818241,11.4606754 30.5551298,11.338659 C29.4674775,11.0534259 27.8075528,11.0946262 26.8269925,11.4210597 Z" id="Combined-Shape-Copy-7" fill="#5E6B8D" fill-rule="nonzero"></path>
                <circle id="Oval-6" stroke="#5E6B8D" opacity="0.200223214" cx="21.5" cy="21.5" r="21.5"></circle>
            </g>
        </g>
    </g>
</svg>

<svg width="45" height="45" xmlns="http://www.w3.org/2000/svg"><g transform="translate(1 1)" fill="none" fill-rule="evenodd"><path d="M26.827 11.421c-2.66.918-4.342 3.282-4.151 5.87l.063.998-1.064-.122c-3.874-.47-7.259-2.059-10.134-4.729l-1.405-1.324-.36.977c-.766 2.18-.276 4.485 1.32 6.035.852.855.66.977-.808.469-.51-.164-.959-.286-1-.224-.15.143.36 1.997.766 2.732.554 1.02 1.681 2.017 2.916 2.61l1.044.469-1.236.017c-1.192 0-1.235.021-1.106.45.425 1.325 2.107 2.732 3.98 3.344l1.32.428-1.149.653c-1.703.94-3.704 1.469-5.706 1.507-.959.02-1.747.101-1.747.163 0 .203 2.599 1.344 4.108 1.794 4.535 1.324 9.921.752 13.966-1.509 2.875-1.61 5.748-4.81 7.09-7.91.724-1.65 1.447-4.667 1.447-6.114 0-.938.064-1.06 1.255-2.18.703-.653 1.362-1.366 1.49-1.569.215-.388.192-.388-.893-.041-1.808.611-2.064.53-1.17-.387.66-.653 1.448-1.835 1.448-2.18 0-.06-.32.04-.68.223-.384.205-1.236.51-1.875.693l-1.15.347-1.042-.675c-.576-.366-1.382-.775-1.809-.897-1.088-.286-2.747-.244-3.728.082z" fill="#5E6B8D" fill-rule="nonzero"/><circle stroke="#5E6B8D" opacity=".2" cx="21.5" cy="21.5" r="21.5"/></g></svg>
